tools/download-figma-icons/icons/outlined-large/sailboat.svg

<svg width="64" height="64" viewBox="0 0 64 64" fill="none" xmlns="http://www.w3.org/2000/svg">
<path fill-rule="evenodd" clip-rule="evenodd" d="M42.1571 55.9999C39.0021 55.9999 37.3501 57.6249 36.0231 58.9309C34.8021 60.1319 33.9201 60.9999 31.9931 60.9999C30.0651 60.9999 29.1821 60.1319 27.9611 58.9309C26.6341 57.6249 24.9811 55.9999 21.8251 55.9999C18.6701 55.9999 17.0181 57.6249 15.6911 58.9309C15.5531 59.0659 15.4211 59.1959 15.2891 59.3219L10.9692 50.9999H53.157L49.134 59.7289C48.861 59.4859 48.588 59.2189 48.295 58.9309C46.967 57.6249 45.3141 55.9999 42.1571 55.9999ZM15.0181 37L27.0001 14.882V37H15.0181ZM20.2981 5.40307L27.0001 3.48808V7.07907L20.2981 5.40307ZM49.966 37H32.6841C36.5141 31.919 39.7571 22.648 33.1071 12.4371C39.3661 15.524 49.314 22.656 49.966 37ZM30.0001 13.209C37.4271 23.666 32.6371 32.141 30.0001 35.518V13.209ZM62.5 55.9999C59.343 55.9999 57.69 57.6249 56.362 58.9309C55.14 60.1319 54.258 60.9999 52.329 60.9999C52.163 60.9999 52.014 60.9849 51.864 60.9729L56.862 50.1279C57.076 49.6629 57.039 49.1219 56.763 48.6909C56.487 48.2609 56.011 48 55.5 48H30.0001V40H51.5C52.328 40 53 39.328 53 38.5C53 17.436 34.7821 9.60506 30.0001 7.91506V1.50008C30.0001 1.02908 29.7791 0.586084 29.4031 0.303085C29.0261 0.0190859 28.5401 -0.0719138 28.0881 0.0580859L14.0881 4.05807C13.4341 4.24407 12.9891 4.84607 13.0001 5.52507C13.0111 6.20407 13.4771 6.79107 14.1361 6.95507L26.2421 9.98106L11.1802 37.785C10.9292 38.25 10.9402 38.813 11.2112 39.268C11.4812 39.722 11.9711 40 12.5001 40H27.0001V48H8.50016C7.97616 48 7.49016 48.2729 7.21816 48.7209C6.94616 49.1689 6.92816 49.7269 7.16916 50.1909L12.7201 60.8869C12.4011 60.9549 12.0571 60.9999 11.6611 60.9999C9.73516 60.9999 8.85316 60.1319 7.63316 58.9309C6.30616 57.6249 4.65517 55.9999 1.50018 55.9999C0.672181 55.9999 0.000183105 56.6719 0.000183105 57.4999C0.000183105 58.3279 0.672181 58.9999 1.50018 58.9999C3.42717 58.9999 4.30817 59.8679 5.52917 61.0689C6.85516 62.3749 8.50716 63.9999 11.6611 63.9999C13.2841 63.9999 14.5051 63.5669 15.4921 62.9729C15.4931 62.9719 15.4931 62.9719 15.4941 62.9719C15.5881 62.9229 15.6741 62.8649 15.7531 62.8009C16.5581 62.2699 17.2131 61.6419 17.7951 61.0689C19.0161 59.8679 19.8981 58.9999 21.8251 58.9999C23.7531 58.9999 24.6361 59.8679 25.8571 61.0689C27.1841 62.3749 28.8371 63.9999 31.9931 63.9999C35.1481 63.9999 36.8001 62.3749 38.1271 61.0689C39.3481 59.8679 40.2301 58.9999 42.1571 58.9999C44.0861 58.9999 44.9701 59.8679 46.1911 61.0689C47.519 62.3749 49.172 63.9999 52.329 63.9999C55.485 63.9999 57.137 62.3749 58.466 61.0689C59.687 59.8679 60.57 58.9999 62.5 58.9999C63.328 58.9999 64 58.3279 64 57.4999C64 56.6719 63.328 55.9999 62.5 55.9999Z" fill="black"/>
</svg>

<svg xmlns="http://www.w3.org/2000/svg" width="64" height="64" fill="none" viewBox="0 0 64 64"><path fill="currentColor" fill-rule="evenodd" d="M42.157 56c-3.155 0-4.807 1.625-6.134 2.93-1.22 1.202-2.103 2.07-4.03 2.07s-2.81-.868-4.032-2.07c-1.327-1.305-2.98-2.93-6.136-2.93-3.155 0-4.807 1.625-6.134 2.93q-.205.203-.402.392L10.97 51h42.188l-4.023 8.729c-.273-.243-.546-.51-.839-.798C46.967 57.625 45.315 56 42.157 56M15.018 37 27 14.882V37zm5.28-31.597L27 3.488V7.08zM49.966 37H32.684c3.83-5.081 7.073-14.352.423-24.563C39.367 15.524 49.314 22.656 49.966 37M30 13.209c7.427 10.457 2.637 18.932 0 22.309zm32.5 42.79c-3.157 0-4.81 1.626-6.138 2.932C55.14 60.13 54.258 61 52.329 61c-.166 0-.315-.015-.465-.027l4.998-10.845A1.5 1.5 0 0 0 55.5 48H30v-8h21.5a1.5 1.5 0 0 0 1.5-1.5C53 17.436 34.782 9.605 30 7.915V1.5A1.498 1.498 0 0 0 28.088.058l-14 4a1.498 1.498 0 0 0 .048 2.897l12.106 3.026L11.18 37.785A1.503 1.503 0 0 0 12.5 40H27v8H8.5a1.5 1.5 0 0 0-1.33 2.19l5.55 10.697a5 5 0 0 1-1.059.113c-1.926 0-2.808-.868-4.028-2.07C6.306 57.626 4.655 56 1.5 56a1.5 1.5 0 0 0 0 3c1.927 0 2.808.868 4.03 2.069 1.325 1.306 2.977 2.93 6.131 2.93 1.623 0 2.844-.432 3.831-1.026l.002-.001q.14-.075.26-.171c.804-.531 1.46-1.16 2.041-1.732 1.221-1.201 2.103-2.07 4.03-2.07s2.811.869 4.032 2.07c1.327 1.306 2.98 2.93 6.136 2.93 3.155 0 4.807-1.624 6.134-2.93 1.221-1.201 2.103-2.07 4.03-2.07 1.93 0 2.813.869 4.034 2.07 1.328 1.306 2.981 2.93 6.138 2.93s4.808-1.624 6.137-2.93c1.221-1.201 2.104-2.07 4.034-2.07a1.5 1.5 0 0 0 0-3" clip-rule="evenodd"/></svg>
